X:1
%
T:Chase the Squirrel [4]
%
M:2/4
L:1/8
S:Volo Bogtrotters
F: https://www.oldtownschool.org/fiddle/fun/chasethesquirrel3545.mp3
Z:Transcribed by Andrew Kuntz
K:D
(3e/f/g/|a)a a/b/a/g/|f/g/a/f/ dd/d/|+slide+[ee][ee] e/f/e/d/|c/d/e/c/ A-A/((3e/f/g/|
a)a a/b/a/g/|f/g/a/f/ dd/d/|c/d/e/f/ g/e/c/A/|dd/d/ d:|
|:(A/d/)[d/f/][d/f/] [de][d/f/][d/f/]|[dg][df][dg][df]|(A/d/)[d/f/][d/f/] [de][df]|e/f/e/d/ c/A/B/c/|
(A/d/)[d/f/][d/f/] [de][d/f/][d/f/]|[dg][df][dg]>g|aa/b/ a/g/e/c/|dd/c/ d2:|]

